src/pos-icons/panorama-vertical.svg

<svg height="24" viewBox="0 0 24 24" width="24" xmlns="http://www.w3.org/2000/svg"><path d="m6.54 20c.77-2.6 1.16-5.28 1.16-8s-.39-5.4-1.16-8h10.91c-.77 2.6-1.16 5.28-1.16 8s.39 5.4 1.16 8m2.49 1.12c-1.1-2.94-1.64-6.03-1.64-9.12s.55-6.18 1.64-9.12c.06-.11.06-.22.06-.31 0-.34-.23-.57-.63-.57h-14.74c-.4 0-.63.23-.63.57 0 .1 0 .2.06.31 1.1 2.94 1.65 6.03 1.65 9.12s-.55 6.18-1.64 9.12c-.07.11-.07.22-.07.31 0 .33.23.57.63.57h14.75c.39 0 .62-.24.62-.57 0-.1 0-.2-.06-.31z"/></svg>

<?xml version="1.0" encoding="UTF-8"?><!DOCTYPE svg PUBLIC "-//W3C//DTD SVG 1.1//EN" "http://www.w3.org/Graphics/SVG/1.1/DTD/svg11.dtd"><svg xmlns="http://www.w3.org/2000/svg" xmlns:xlink="http://www.w3.org/1999/xlink" version="1.1" id="mdi-panorama-vertical" width="24" height="24" viewBox="0 0 24 24"><path d="M6.54,20C7.31,17.4 7.7,14.72 7.7,12C7.7,9.28 7.31,6.6 6.54,4H17.45C16.68,6.6 16.29,9.28 16.29,12C16.29,14.72 16.68,17.4 17.45,20M19.94,21.12C18.84,18.18 18.3,15.09 18.3,12C18.3,8.91 18.85,5.82 19.94,2.88C20,2.77 20,2.66 20,2.57C20,2.23 19.77,2 19.37,2H4.63C4.23,2 4,2.23 4,2.57C4,2.67 4,2.77 4.06,2.88C5.16,5.82 5.71,8.91 5.71,12C5.71,15.09 5.16,18.18 4.07,21.12C4,21.23 4,21.34 4,21.43C4,21.76 4.23,22 4.63,22H19.38C19.77,22 20,21.76 20,21.43C20,21.33 20,21.23 19.94,21.12Z" /></svg>
